X:1
T:Missa octavi toni
T:Rodrigo de Ceballos (c. 1525 - c. 1571) Edited by Jonathan Goodliffe and Mick Swithinbank
T:From the Música Colonial archive in Guatemala, catalogue number 9-007
T:Missa octavi toni
T:1. Kyrie
C:Rodrigo de Ceballos (c. 1525 - c. 1571)
C:Edited by Jonathan Goodliffe and Mick Swithinbank
Z:From the Música Colonial archive in
Z:Guatemala, catalogue number 9-007
%%score [ 1 2 3 4 ]
L:1/8
M:4/4
K:C
V:1 treble nm="Soprano" snm="S."
V:2 treble nm="Alto" snm="A."
V:3 treble-8 transpose=-12 nm="Tenor" snm="T."
V:4 bass nm="Bass" snm="B."
V:1
 z8 | z8 | G6 A2 | B2 G2 c2 d2 | e3 d c2 AB | cd e4 d2- | dc c4 B2 | c4 z2 B2- | B2 c2 d2 B2 | %9
w: ||Ky- ri-|e _ _ _|_ _ _ _ _||* * e- lei-|son, ky-|* ri- e e-|
 A4 G2 g2- | gf ed c2 B2 | c4 z2 e2 | f4 e4 | d2 c4 B2 | c8 || z4 d4 | c2 B2 A2 c2- | c2 BA B2 A2 | %18
w: lei- son, ky-|* ri- e _ e- lei-|son, ky-|ri- e|_ e- lei-|son.|Chris-|te _ _ _|_ _ _ _ _|
 c2 d3 c c2 | d4 z2 d2- | d2 c2 B2 A2 | c2 d2 c4 | z2 c4 B2 | A4 B2 c2 | d4 G4 | z2 g4 f2 | %26
w: * * e- lei-|son, Chris-|* te _ _|e- lei- son,|Chris- te|_ _ e-|lei- son,|Chris- te|
 e2 d2 f2 e2 | d2 c2 e4- | e2 d2 c4 | B8 || G4 B2 c2 | d2 d2 e2 c2- | c2 B2 d2 c2- | c2 B2 c4- | %34
w: _ _ _ _||* e- lei-|son.|Ky- ri- e|e- lei- son, ky-|* ri- e e-|* lei- son,|
 c4 z4 | z2 c2 c2 A2 | c3 d e2 d2- | d2 c2 d4- | d4 z4 | z2 d2 d2 B2 | c2 d2 G2 g2 | e2 f4 e2 | %42
w: _|ky- ri- e|_ _ _ e-|* lei- son,|_|ky- ri- e|e- lei- son, ky-|ri- e _|
 d2 c4 B2 | c8 |] %44
w: _ e- lei-|son.|
V:2
 z8 | z8 | z8 | z8 | C6 D2 | E2 C2 E2 F2 | G4 A2 G2- | G2 ^F2 G4 | z8 | z8 | C6 D2 | E2 C2 F2 G2 | %12
w: ||||Ky- ri-|e _ _ _|_ _ e-|* lei- son,|||ky- ri-|e _ _ _|
 A4 G2 E2 | F2 G2 A2 G2 | G8 || G6 F2 | E2 D2 F2 E2 | D4 z4 | z4 z2 G2- | G2 F2 E2 D2 | F2 E2 D4 | %21
w: _ _ _|* * e- lei-|son.|Chris- te|_ _ e- lei-|son,|Chris-|* te _ _|e- lei- son,|
 z4 z2 G2- | G2 F2 E2 D2 | F6 E2 | G2 D2 E2 D2- | DC C2 D2 A2 | G2 F2 A4 | D2 E4 CD | EF G4 ^F2 | %29
w: Chris-|* te _ e-|lei- son,|Chris- te e- *|* * lei- son, Chris-|te _ _|_ _ _ _|* * e- lei-|
 G8 || z2 G2 G2 E2 | F2 G2 C4 | D4 G2 G2 | F2 D2 G4 | C4 E2 F2 | G2 G2 A4 | A,4 C2 D2 | E2 E2 F4 | %38
w: son.|Ky- ri- e|_ e- lei-|son, ky- ri-|e e- lei-|son, ky- ri-|e e- lei-|son, ky- ri-|e e- lei-|
 D4 F2 G2 | A4 G4 | F4 E4 | z2 c2 B2 G2 | A4 G4 | G8 |] %44
w: son, ky- ri-|e e-|lei- son,|ky- ri- e|e- lei-|son.|
V:3
 G6 A2 | B2 G2 c2 d2 | e4 z2 c2 | d2 e2 f4 | e2 g2 e2 f2 | g6 f2 | e4 d4 | z2 c4 d2 | e4 d2 g2- | %9
w: Ky- ri-|e _ e- lei-|son, ky-|ri- e e-|||lei- son,|ky- ri-|e e- *|
 g2 ^f2 g4 | e4 f2 g2- | gf ed c2 B2 | c4 z2 g2 | f2 e2 d2 d2 | c8 || z8 | z8 | z4 d4 | %18
w: * lei- son,|ky- ri- e|_ _ _ _ e- lei-|son, ky-|ri- e e- lei-|son.|||Chris-|
 c2 B2 A2 c2 | B2 A2 G4 | z2 g4 f2 | e2 d2 f2 e2 | d2 c2 g4 | z2 d4 c2 | B2 A2 c2 B2 | A2 G2 A3 B | %26
w: te _ _ _|e- lei- son,|Chris- te|_ _ _ _|e- lei- son,|Chris- te|_ _ _ _||
 c2 d2 A4 | z2 a2 g2 e2 | g4 c4 | d8 || z8 | z8 | G4 B2 c2 | d2 d2 e2 c2 | e3 f g2 f2- | f2 e2 f4 | %36
w: e- lei- son,|Chris- te _|e- lei-|son.|||Ky- ri- e|e- lei- son, ky-|ri- e _ _|_ e- lei-|
 e4 z4 | z2 a2 a2 d2 | f3 g a2 g2- | g2 ^f2 g2 G2 | A2 B2 cd ef | g2 a2 g4 | f3 e d4 | c8 |] %44
w: son,|ky- ri- e|_ _ _ e-|* lei- son, ky-|ri- e e- * * *||* * lei-|son.|
V:4
 z8 | z8 | z8 | z8 | z8 | C,6 D,2 | E,2 C,2 F,2 G,2 | A,4 z2 G,2- | G,2 A,2 B,2 G,2 | C2 D2 E4 | %10
w: |||||Ky- ri-|e e- * lei-|son, ky-|ri- e _ _|e- lei- son,|
 z2 A,4 G,2 | C3 B, A,2 G,2 | F,G, A,B, C2 C,2 | D,2 E,2 F,2 G,2 | C,8 || z8 | z8 | G,6 F,2 | %18
w: ky- ri-|e _ _ _|_ _ _ _ _ _|* * e- lei-|son.|||Chris- te|
 E,2 D,2 F,2 E,2 | D,4 z4 | z4 z2 D2 | C2 B,2 A,2 C2 | B,2 A,2 G,4 | z4 z2 A,2 | G,2 F,2 E,2 G,2 | %25
w: _ _ e- lei-|son,|Chris-|te _ _ _|e- lei- son,|Chris-|te _ _ _|
 F,2 E,2 D,4 | z2 D4 C2 | B,2 A,2 C4- | C2 B,2 A,4 | G,8 || z8 | z8 | z2 G,2 G,2 E,2 | %33
w: e- lei- son,|Chris- te|_ _ _|* e- lei-|son.|||Ky- ri- e|
 F,2 G,2 C,4 | z2 C2 C2 A,2 | B,2 C2 F,4 | z2 A,2 A,2 F,2 | G,2 A,2 D,4 | z2 D2 D2 B,2 | %39
w: e- lei- son,|ky- ri- e|e- lei- son,|ky- ri- e|e- lei- son,|ky- ri- e|
 C2 D2 G,4 | z4 z2 C2 | C2 A,2 B,2 C2 | F,4 G,4 | C,8 |] %44
w: e- lei- son,|ky-|ri- e _ _|e- lei-|son.|

